packages/icons/svg/Outline/arrow-ios-up.svg

<svg width="24" height="24" viewBox="0 0 24 24" fill="none" xmlns="http://www.w3.org/2000/svg">
<g id="Icon/Outline/arrow-ios-up">
<path id="Mask" fill-rule="evenodd" clip-rule="evenodd" d="M17.9995 15C17.7735 15 17.5465 14.924 17.3595 14.768L11.9885 10.292L6.62651 14.607C6.19751 14.954 5.56751 14.886 5.22051 14.455C4.87451 14.025 4.94251 13.396 5.37351 13.049L11.3735 8.22098C11.7435 7.92198 12.2745 7.92598 12.6405 8.23198L18.6405 13.232C19.0645 13.585 19.1215 14.216 18.7685 14.64C18.5705 14.877 18.2865 15 17.9995 15Z" fill="#000000"/>
</g>
</svg>

<svg fill="none" height="24" viewBox="0 0 24 24" width="24" xmlns="http://www.w3.org/2000/svg"><path clip-rule="evenodd" d="m17.9995 14.9999c-.226 0-.453-.076-.64-.232l-5.371-4.476-5.36199 4.315c-.429.347-1.059.279-1.406-.152-.346-.43-.278-1.059.153-1.406l5.99999-4.82798c.37-.299.901-.295 1.267.011l6 4.99998c.424.353.481.984.128 1.408-.198.237-.482.36-.769.36" fill="#6b7280" fill-rule="evenodd"/></svg>
